static/images/arrows.svg

<svg width="37" height="31" viewBox="0 0 37 31" fill="none" xmlns="http://www.w3.org/2000/svg">
<path d="M22.4326 1.26055e-06L27.8884 7.83584e-07L36.8516 15.3505L27.8884 30.701L22.4326 30.701L31.3957 15.3505L22.4326 1.26055e-06Z" fill="#090940"/>
<path d="M11.7158 1.26055e-06L17.1716 7.83584e-07L26.1348 15.3505L17.1716 30.701L11.7158 30.701L20.6789 15.3505L11.7158 1.26055e-06Z" fill="#090940"/>
<path d="M0.998974 1.26055e-06L6.45481 7.83584e-07L15.418 15.3505L6.45481 30.701L0.998977 30.701L9.96213 15.3505L0.998974 1.26055e-06Z" fill="#090940"/>
</svg>

<svg width="37" height="31" fill="none" xmlns="http://www.w3.org/2000/svg">
    <path d="M22.433 0h5.455l8.964 15.35-8.964 15.351h-5.455l8.963-15.35L22.433 0Z" fill="#090940"/>
    <path d="M11.716 0h5.456l8.963 15.35-8.963 15.351h-5.456l8.963-15.35L11.716 0Z" fill="#090940"/>
    <path d="M.999 0h5.456l8.963 15.35-8.963 15.351H.999l8.963-15.35L1 0Z" fill="#090940"/>
</svg>
